!!!!SEGMENT: pl-wtm--r-2299_troschel-wilhelm-oczywistosc.krn
!!!id: 18xx:2259
!!!COM: Troschel, Wilhelm
!!!OTL: Oczywistość
!!!PDT:
!!!SMS-siglum: PL-Wtm
!!!SMS-shelfmark: R 2299
!!!NIFC-rismID: 1001114018
!!!URL-scan: http://repozytorium.nifc.pl/skany/pl-wtm-nut--r2299
!!!ONB-nifc:
!!!SMS-variant:
!!!SMS-altvar:
!!!OMD: Tempo Mazurka.
**kern	**kern	**dynam	**fing	**kern	**text	**dynam
*part2	*part2	*part2	*part2	*part1	*part1	*part1
*staff3	*staff2	*	*	*staff1	*staff1	*
*	*I"fp.	*	*	*I"Głos	*	*
*clefF4	*clefG2	*	*	*clefG2	*	*
*k[b-e-a-]	*k[b-e-a-]	*	*	*k[b-e-a-]	*	*
*M3/4	*M3/4	*	*	*M3/4	*	*
*all\right	*all\right	*	*	*all\right	*	*
=1	=1	=1	=1	=1	=1	=1
*^	*^	*	*	*	*	*
*2\right	*	*	*	*	*	*	*	*
!	!LO:N:vis=2.	!	!	!LO:DY:rj	!	!LO:TX:a:i:t=Wiersz Gabryelli\nMuzyka W. Troschle	!	!
4rA	(2BB-\	8ree	4re	f	.	2.r	.	.
.	.	(8aa-/	.	.	.	.	.	.
*	*	*2\right	*	*	*	*	*	*
4B-/	.	4.gg/	2dd 2a-\	.	.	.	.	.
4Bn/	4BBn\)	.	.	.	.	.	.	.
.	.	8ff/)	.	.	.	.	.	.
=2	=2	=2	=2	=2	=2	=2	=2	=2
!LO:N:n=1:vis=4.	!	!	!	!	!	!	!	!
4c 4C\	4ryy	8r	4ryy	.	.	2.r	.	.
.	.	8ee- [<8e-/	.	.	.	.	.	.
4r	2AAn\	(4.dd/	2g-X 2e-\]	.	.	.	.	.
4An/	.	.	.	.	.	.	.	.
.	.	8cc/)	.	.	.	.	.	.
=3	=3	=3	=3	=3	=3	=3	=3	=3
8G/L	2.BB-\	(8b-/L	4e-\	.	5	2.r	.	.
8F#X/J	.	8an/J	.	.	.	.	.	.
4Fn/	.	4a-X/	8e-\L	.	.	.	.	.
.	.	.	8c\J	.	.	.	.	.
8B-/L	.	8g/L)	4d\	.	.	.	.	.
8A-/J	.	8f/J	.	.	.	.	.	.
*v	*v	*	*	*	*	*	*	*
*	*v	*v	*	*	*	*	*
!!LO:LB:g=original
=4	=4	=4	=4	=4	=4	=4
4G 4E-\	2e-/	.	.	2.r	.	.
4EE-/	.	.	.	.	.	.
4r	4r	.	.	.	.	.
=5	=5	=5	=5	=5	=5	=5
*	*^	*	*	*	*	*
!	!	!	!LO:DY:rj	!	!	!	!LO:DY:b:rj
8G\L	8b-/L	4e-\	p	.	8b-\	Słoń-	p
8A-\J	8cc/J	.	.	.	8cc\	-ce	.
4En\	4g/	4d-X\	.	.	4g/	jas-	.
4F\	4a-/	4c\	.	.	4a-/	-ne	.
*	*v	*v	*	*	*	*	*
=6	=6	=6	=6	=6	=6	=6
*^	*	*	*	*	*	*
!	!	!	!	!	!	!	!LO:HP:b
2A-/	4r	(>8c/L	<	.	8c/	ma	<
.	.	8d/J	.	.	8d/	pro-	.
.	.	.	.	.	.	.	[
.	(4BB-\	4f/	[	.	4f/	-mie-	.
!	!	!	!	!	!	!	!LO:HP:b
.	.	.	>	.	.	.	>
4G/	4E-\)	4e-/)	]	.	4e-/	-nie,	]
*v	*v	*	*	*	*	*	*
!!LO:LB:g=original
=7	=7	=7	=7	=7	=7	=7
*	*^	*	*	*	*	*
*ped	*	*	*	*	*	*	*
4EE-/	8g/L	4ryy	.	.	(8g/	Ptak	.
.	8b-/J	.	.	.	8b-/	ma	.
4e- 4B- 4G\	4.ee-/	2g\	.	.	4.ee-\	dzwię-	.
*Xped	*	*	*	*	*	*	*
.	.	.	.	.	.	.	.
4e- 4Bn 4G\	.	.	.	.	.	.	.
.	8bn/	.	.	.	8bn\	-czny	.
=8	=8	=8	=8	=8	=8	=8	=8
*ped	*	*	*	*	*2\right	*	*
!	!	!	!	!	!	!	!LO:HP:b
4AA-\	(2dd/	2.a- 2.e-\	.	.	2dd\	głos	>
4c 4A- 4E-\	.	.	.	.	.	.	.
4c 4A- 4E-\	4cc/)	.	.	.	4cc\)	.	]
*Xped	*	*	*	*	*	*	*
.	.	.	.	.	.	.	.
*	*v	*v	*	*	*	*	*
=9	=9	=9	=9	=9	=9	=9
.	.	.	.	8qdd-X/	.	.
(2.C 2.CC/	4r	.	.	8.cc\	Świe-	.
.	.	.	.	16bn\	-cić	.
.	4g 4en 4B-/	.	.	4cc\	słoń-	.
.	4g 4e 4B-/	.	.	4g/	-ca	.
!!LO:LB:g=original
=10	=10	=10	=10	=10	=10	=10
!LO:TX:b:t=P:problem:brak zakończenia łuku	!	!	!	!	!	!
2.FF/)	4r	.	.	8.a-/	prze-	.
.	.	.	.	16c/	-zna-	.
.	4f 4A-/	.	.	4.f/	-cze-	.
.	4f 4c 4A-/	.	.	.	.	.
.	.	.	.	8e-/	-nie,	.
=11	=11	=11	=11	=11	=11	=11
2.BB- 2.BBB-/	4r	.	.	8e-/	Śpie-	.
.	.	.	.	8d/	-wać	.
.	4f 4d 4A-/	.	.	(8cc\L	pta-	.
.	.	.	.	8b-\	.	.
.	4d 4A-/	.	.	8f\J	.	.
.	.	.	.	8f#X/)	-ka	.
=12	=12	=12	=12	=12	=12	=12
2EE-/	4r	.	.	2g/	los!	.
.	4e- 4B- 4G/	.	.	.	.	.
4r	4e- 4B- 4G/	.	.	4r	.	.
!!LO:PB:g=original
=13	=13	=13	=13	=13	=13	=13
*	*^	*	*	*	*	*
*	*	*^	*	*	*	*	*
!	!	!	!	!LO:HP:a	!	!	!	!
8E- 8EE-\	8e- 8G/	4ryy	2ryy	<	.	8.g/	Ty	.
8r	8r	.	.	.	.	.	.	.
.	.	.	.	[	.	16g/	masz	.
!	!	!	!	!LO:HP:a	!	!	!	!
2FF\	2e-/	2An\	.	>	.	4g/	ser-	.
.	.	.	8d/L	.	.	8f/L	-ce	.
.	.	.	8c/J	]	.	8e-/J	.	.
=14	=14	=14	=14	=14	=14	=14	=14	=14
4BBB-/	8dL 8B-/	4ryy	2ryy	.	.	8d/	do	.
.	8e-J 8c/	.	.	.	.	8e-/	ko-	.
2F 2BB-\	4f/	2d\	.	.	.	(4f/	-cha-	.
.	4b-/	.	4d 4B- 4F</	.	.	4b-\)	-nia	.
*	*v	*v	*v	*	*	*	*	*
=15	=15	=15	=15	=15	=15	=15
4FF/	8.anL 8.f/	<	.	8.an/	do	<
.	16b-Jk 16g/	.	.	16b-/	wia-	.
!	!	!	!	!LO:TX:B:t=..	!	!
.	.	[	.	.	.	.
4e- 4F\	4cc 4a\	.	.	4cc\	-ne-	[
4e- 4F\	4cc#X 4a\	.	.	4cc#X\	-czka	.
!!LO:LB:g=original
=16	=16	=16	=16	=16	=16	=16
*ped	*	*	*	*	*	*
4BB-\	2.dd 2.b-\	.	.	2dd\	skroń,	.
4d 4B- 4F\	.	.	.	.	.	.
4d 4B- 4F\	.	.	.	4r	.	.
*Xped	*	*	*	*	*	*
.	.	.	.	.	.	.
=17	=17	=17	=17	=17	=17	=17
*	*^	*	*	*	*	*
4Bn 4G\	8ee-/L	2f\	.	.	(8ee-\	U-	.
!	!LO:TX:b:i:t=dolce	!	!	!	!	!	!
.	(8dd/J	.	.	.	8dd\	-sła-	.
4B 4G\	4.g/	.	.	.	4.g/	-niasz	.
!LO:SIC:v:n=1:s=4B-\	!	!	!	!	!	!	!
4B 4C\	.	4en\	.	.	.	.	.
.	8cc/)	.	.	.	8cc\)	do	.
=18	=18	=18	=18	=18	=18	=18	=18
4A- 4F\	8dd/L	2e-X\	.	.	(8dd\	ca-	.
.	(8cc/J	.	.	.	8cc\	-ło-	.
4A- 4F\	4f/	.	.	.	(4f/)	-wa-	.
4B- 4BB-\	4b-/)	4d\	.	.	4b-/)	-nia,	.
!!LO:LB:g=original
=19	=19	=19	=19	=19	=19	=19	=19
[4B- 4En\	8an/L	[4d-X\	.	.	8an/	Do	.
.	8g/	.	.	.	8g/	piesz-	.
!	!	!	!	!	!LO:SIC:v:l:s=-czo-	!	!
8B-]L 8G\	8en/	8d-\L]	.	.	8en/L	-o-	.
8F\J	8f/J	8dn\J	.	.	8f/J	.	.
4F 4FF;<\	4a 4e-X 4c;/	4ryy	.	.	(8.ee-;\	.	.
.	.	.	.	.	16a/)	-ty	.
=20	=20	=20	=20	=20	=20	=20	=20
*^	*	*	*	*	*	*	*
4F/	[2.BB-\	[2.b-/	4d\	.	.	4b-,\	dłoń.	.
4.A-X/	.	.	4.f\	.	.	[2b-\	Ach!	.
8F/	.	.	8d\	.	.	.	.	.
=21	=21	=21	=21	=21	=21	=21	=21	=21
8.E-/L	2.BB-\]	2.b-/]	8.c\L	.	.	2.b-\]	.	.
16E-/Jk	.	.	16c\Jk	.	.	.	.	.
4G/	.	.	4e-\	.	.	.	.	.
4E-/	.	.	4c\	.	.	.	.	.
*v	*v	*	*	*	*	*	*	*
*	*v	*v	*	*	*	*	*
=22	=22	=22	=22	=22	=22	=22
(<2F 2BB-\	8r	.	.	2.r	.	.
.	8cc 8c/	.	.	.	.	.
.	2b- 2B-/	.	.	.	.	.
4G 4E-\)	.	.	.	.	.	.
!!LO:LB:g=original
=23	=23	=23	=23	=23	=23	=23
4BB-\	4r	.	.	8.cc\	A	.
.	.	.	.	16b-\	więc	.
4r	4d 4A-/	.	.	(4a-/	nie	.
4BB-\	4r	.	.	4d/)	chciej	.
=24	=24	=24	=24	=24	=24	=24
.	.	.	.	8qf/	.	.
4E-\	4r	.	.	8e-/	wo-	.
.	.	.	.	8g/	-li	.
!	!	!	!	!LO:N:vis=8	!	!
4r	4e- 4B- 4G/	.	.	4cc/	Bo-	.
.	.	.	.	.	.	.
4BB-\	4r	.	.	4b-/	-ga	.
!!LO:PB:g=original
=25	=25	=25	=25	=25	=25	=25
4D\	4r	.	.	8a-/	Prze-	.
.	.	.	.	8f/	-szkód	.
4r	4f 4B- 4A-/	.	.	4dd/	kłam-	.
4BB-\	4r	.	.	4cc/	-stwem	.
=26	=26	=26	=26	=26	=26	=26
4E-\	4r	.	.	2b-/	nieść.	.
4r	4e- 4G/	.	.	.	.	.
4BB-\	4r	.	.	4r	.	.
=27	=27	=27	=27	=27	=27	=27
4GG/	8b-\L	.	.	8b-\	A	.
.	8ee-\J	.	.	8ee-\	więc	.
2g> 2e- 2B- 2G\	4.ff/	.	.	(4.ff^\	ko-	.
.	8ee-/	.	.	8ee-\)	-chaj	.
!!LO:LB:g=original
=28	=28	=28	=28	=28	=28	=28
4AA-/	8f/L	.	.	8f/	mo-	.
.	8cc/J	.	.	8cc\	-ja	.
2f> 2c 2A-\	4.dd/	.	.	(4.dd\	dro-	.
.	8cc/	.	.	8cc\)	-ga,	.
=29	=29	=29	=29	=29	=29	=29
2.BB-/	4r	.	.	8d/L	Więc	.
.	.	.	.	8a-/J	.	.
.	4a- 4d 4A-/	.	.	4a-/	ca-	.
.	.	.	.	16qqb-/LL	.	.
.	.	.	.	16qqa-/JJ	.	.
.	4d 4A-/	.	.	8g/	-łuj	.
.	.	.	.	8f/	i	.
=30	=30	=30	=30	=30	=30	=30
8.E-\L	8.e-L 8.G/	.	.	8.g/	pieść	.
!	!	!	!	!	!	!LO:DY:b:rj
16A-\Jk	16ccJk 16e-/	.	.	16cc\	i	pp
2G\	2b- 2e-/	.	.	2b-\	pieść!	.
!!LO:LB:g=original
=31	=31	=31	=31	=31	=31	=31
4GG/	8b-\L	.	.	8b-\	A	.
.	8dd\J	.	.	8dd\	więc	.
2g> 2e- 2B- 2G;<\	4.ff;/	.	.	(4.ff^;\	ko-	.
.	8ee-/	.	.	8ee-\)	-chaj	.
=32	=32	=32	=32	=32	=32	=32
!	!LO:TUP:a:problem:klamra łukowa	!	!	!LO:TUP:a:problem:klamra łukowa	!	!
4AA-/	12en/L	.	.	12en/L	mo-	.
.	12f/	.	.	12f/J	.	.
.	12a-/J	.	.	12a-/	-ja	.
2f> 2c 2A-;<\	4.dd;/	.	.	(4.dd;\	dro-	.
.	8cc/	.	.	8cc\)	-ga	.
=33	=33	=33	=33	=33	=33	=33
2BB-/	4r	.	.	(8b-\L	Więc	.
.	.	.	.	8bn\J	.	.
.	4g 4e- 4B-/	.	.	8dd^\L	ca-	.
.	.	.	.	8cc\J	.	.
4BB-;<\	4f 4d 4A-;/	.	.	8f/)	-łuj	.
.	.	.	.	(>8b-X;/	i	.
=34	=34	=34	=34	=34	=34	=34
2E- 2EE-/	2e- 2G/	.	.	2e-/)	pieść!	.
4r	4r	.	.	4r	.	.
!!LO:LB:g=original
=35	=35	=35	=35	=35	=35	=35
*^	*^	*	*	*	*	*
!	!	!	!	!LO:DY:rj	!	!	!	!
4rA	(2BB-\	8ree	4re	f	.	2.r	.	.
.	.	8aa-/	.	.	.	.	.	.
4B-/	.	4.gg/	2dd 2a-\	.	.	.	.	.
4Bn/	4BBn\)	.	.	.	.	.	.	.
.	.	8ff/	.	.	.	.	.	.
=36	=36	=36	=36	=36	=36	=36	=36	=36
4c 4C\	4ryy	8r	4ryy	.	.	2.r	.	.
.	.	8ee- [<8e-/	.	.	.	.	.	.
4r	(2AAn\	(4.dd/	2g-X 2e-\]	.	.	.	.	.
4An/)	.	.	.	.	.	.	.	.
.	.	8cc/)	.	.	.	.	.	.
=37	=37	=37	=37	=37	=37	=37	=37	=37
8G/L	2.BB-\	(8b-/L	4e-\	.	.	2.r	.	.
8F#X/J	.	8an/J	.	.	.	.	.	.
4Fn/	.	4a-X/	8e-\L	.	.	.	.	.
.	.	.	8c\J	.	.	.	.	.
8B-/L	.	8g/L	4d\	.	.	.	.	.
8A-/J	.	8f/J)	.	.	.	.	.	.
*	*	*v	*v	*	*	*	*	*
=38	=38	=38	=38	=38	=38	=38	=38
4G	4E-\	4e-/	.	.	2.r	.	.
4E- 4EE-^<\	2ryy	4e- 4B- 4G^>/	.	.	.	.	.
4r	.	4r	.	.	.	.	.
*v	*v	*	*	*	*	*	*
==	==	==	==	==	==	==
*-	*-	*-	*-	*-	*-	*-
!!!system-decoration: s1{(s2,s3)}
!!!RDF**kern: > = above
!!!RDF**kern: < = below
!!!ENC: Andrzej Kubiczek
!!!END: 2021-06-12
!!!ENC: Andrzej Kubiczek
!!!END: 2021-08-18
